icon/cg/arrows-merge-alt-h.svg

<svg viewBox="0 0 24 24" fill="none" xmlns="http://www.w3.org/2000/svg" height="1em" width="1em">
  <path d="M1.5033 6H3.5033V11H7.6749L5.84644 9.17154L7.26066 7.75732L11.5033 12L7.26066 16.2426L5.84644 14.8284L7.67483 13H3.5033V18H1.5033V6Z" fill="currentColor"/>
  <path d="M20.4967 6H22.4967V18H20.4967V13H16.3251L18.1536 14.8285L16.7393 16.2427L12.4967 12L16.7393 7.75739L18.1536 9.17161L16.3252 11H20.4967V6Z" fill="currentColor"/>
</svg>

<svg width="24" height="24" fill="none" xmlns="http://www.w3.org/2000/svg"><path d="M1.503 6h2v5h4.172L5.846 9.172l1.415-1.415L11.503 12l-4.242 4.243-1.415-1.415L7.675 13H3.503v5h-2V6ZM20.497 6h2v12h-2v-5h-4.172l1.829 1.829-1.415 1.414L12.497 12l4.242-4.243 1.415 1.415L16.325 11h4.172V6Z" fill="currentColor"/></svg>
